X:1
T:Madam del Caro's Hornpipe. WM082
R:hp 16 reel
S:Wm.Mittell,1799
N:In other MSs this usually appears dotted and in 2/4,
N:as it does earlier in this MS
O:England
A:Kent
Z:C.G.P
M:4/4
L:1/8
Q:1/4=180
K:G
|:GBdg fede|dcBA BcdB|GBdg fede|dcBA G3z:|
|:GBdg e/f/g e/f/g|DFAc B/c/dB/c/d|
GBdg e/f/g e/f/g|dcBA G3z:|]
